svgs/sharp-regular/caravan-simple.svg

<svg xmlns="http://www.w3.org/2000/svg" viewBox="0 0 640 512"><!--! Font Awesome Pro 6.4.2 by @fontawesome - https://fontawesome.com License - https://fontawesome.com/license (Commercial License) Copyright 2023 Fonticons, Inc. --><path d="M48 80V368h60.8c16.6-28.7 47.6-48 83.2-48s66.6 19.3 83.2 48H528V192c0-61.9-50.1-112-112-112H48zM96 416H48 0V368 80 32H48 416c88.4 0 160 71.6 160 160V368l40 0h24v48H616l-40 0H528 288c0 53-43 96-96 96s-96-43-96-96zm0-288H288V256H96V128zm352 0V256H320V128H448zM240 416a48 48 0 1 0 -96 0 48 48 0 1 0 96 0z"/></svg>

<svg xmlns="http://www.w3.org/2000/svg" viewBox="0 0 640 512"><!--! Font Awesome Pro 6.6.0 by @fontawesome - https://fontawesome.com License - https://fontawesome.com/license (Commercial License) Copyright 2024 Fonticons, Inc. --><path d="M48 80l0 288 60.8 0c16.6-28.7 47.6-48 83.2-48s66.6 19.3 83.2 48L528 368l0-176c0-61.9-50.1-112-112-112L48 80zM96 416l-48 0L0 416l0-48L0 80 0 32l48 0 368 0c88.4 0 160 71.6 160 160l0 176 40 0 24 0 0 48-24 0-40 0-48 0-240 0c0 53-43 96-96 96s-96-43-96-96zm0-288l192 0 0 128L96 256l0-128zm352 0l0 128-128 0 0-128 128 0zM240 416a48 48 0 1 0 -96 0 48 48 0 1 0 96 0z"/></svg>
